app/assets/images/heroicons/solid/beaker.svg

<svg width="24" height="24" viewBox="0 0 24 24" fill="none" xmlns="http://www.w3.org/2000/svg">
<path fill-rule="evenodd" clip-rule="evenodd" d="M10.5 3.79758V8.81802C10.5 9.61367 10.1839 10.3767 9.62131 10.9393L7.24427 13.3164C8.99161 13.192 10.7578 13.5404 12.3354 14.3292C14.0988 15.2109 16.1395 15.442 18.048 14.9649L18.333 14.8937L14.3787 10.9393C13.8161 10.3767 13.5 9.61367 13.5 8.81802V3.79758C13.0041 3.76602 12.504 3.75 12 3.75C11.496 3.75 10.9958 3.76602 10.5 3.79758ZM15 3.93576C15.3732 3.93623 15.6969 3.65833 15.7442 3.27849C15.7955 2.86746 15.5038 2.4927 15.0928 2.44144C14.8362 2.40945 14.5784 2.38138 14.3194 2.3573C13.5556 2.28628 12.7819 2.25 12 2.25C11.218 2.25 10.4444 2.28628 9.68055 2.3573C9.4216 2.38138 9.16378 2.40945 8.90718 2.44144C8.49615 2.4927 8.2045 2.86746 8.25575 3.27849C8.30312 3.65833 8.62676 3.93623 8.99999 3.93576V8.81802C8.99999 9.21584 8.84195 9.59737 8.56065 9.87868L2.26745 16.1719C0.646313 17.793 1.36446 20.6474 3.73836 21.0527C6.42419 21.5112 9.1845 21.75 12 21.75C14.8155 21.75 17.5758 21.5112 20.2616 21.0527C22.6355 20.6474 23.3537 17.793 21.7325 16.1719L15.4393 9.87868C15.158 9.59737 15 9.21584 15 8.81802V3.93576Z" fill="#0F172A"/>
</svg>

<svg xmlns="http://www.w3.org/2000/svg" viewBox="0 0 24 24" fill="currentColor" aria-hidden="true" data-slot="icon">
  <path fill-rule="evenodd" d="M10.5 3.798v5.02a3 3 0 0 1-.879 2.121l-2.377 2.377a9.845 9.845 0 0 1 5.091 1.013 8.315 8.315 0 0 0 5.713.636l.285-.071-3.954-3.955a3 3 0 0 1-.879-2.121v-5.02a23.614 23.614 0 0 0-3 0Zm4.5.138a.75.75 0 0 0 .093-1.495A24.837 24.837 0 0 0 12 2.25a25.048 25.048 0 0 0-3.093.191A.75.75 0 0 0 9 3.936v4.882a1.5 1.5 0 0 1-.44 1.06l-6.293 6.294c-1.62 1.621-.903 4.475 1.471 4.88 2.686.46 5.447.698 8.262.698 2.816 0 5.576-.239 8.262-.697 2.373-.406 3.092-3.26 1.47-4.881L15.44 9.879A1.5 1.5 0 0 1 15 8.818V3.936Z" clip-rule="evenodd"/>
</svg>
